contributed-vectors/signal.svg

<svg width="192" height="192" viewBox="0 0 192 192" fill="none" xmlns="http://www.w3.org/2000/svg">
<path d="M176 92C176 135.078 141.078 170 98 170C84.6109 170 61 160.683 61 160.683L28.0776 166.078C26.7782 166.291 25.6312 165.211 25.7645 163.901L29.317 129C29.317 129 20 105.389 20 92C20 48.9218 54.9218 14 98 14C141.078 14 176 48.9218 176 92Z" stroke="#9ABEFF" stroke-width="10" stroke-linecap="round" stroke-dasharray="16 16"/>
<path d="M164 92C164 128.451 134.451 158 98 158C86.6707 158 66.6923 150.116 66.6923 150.116L39.2315 154.616C37.932 154.829 36.785 153.75 36.9183 152.44L39.8836 123.308C39.8836 123.308 32 103.329 32 92C32 55.5492 61.5492 26 98 26C134.451 26 164 55.5492 164 92Z" fill="#9ABEFF"/>
</svg>

<svg xmlns="http://www.w3.org/2000/svg" width="192" height="192" fill="none"><path stroke="#9ABEFF" stroke-dasharray="16 16" stroke-linecap="round" stroke-width="10" d="M176 92c0 43.078-34.922 78-78 78-13.39 0-37-9.317-37-9.317l-32.922 5.395a2 2 0 0 1-2.313-2.177L29.317 129S20 105.389 20 92c0-43.078 34.922-78 78-78s78 34.922 78 78Z"/><path fill="#9ABEFF" d="M164 92c0 36.451-29.549 66-66 66-11.33 0-31.308-7.884-31.308-7.884l-27.46 4.5a2 2 0 0 1-2.314-2.176l2.966-29.132S32 103.329 32 92c0-36.45 29.55-66 66-66 36.451 0 66 29.55 66 66Z"/></svg>
